X:1
T:Title
%%score { ( 1 3 ) | ( 2 4 ) }
L:1/8
M:6/8
K:F
V:1 treble nm="Grand Piano"
V:3 treble 
V:2 bass 
V:4 bass 
V:1
 z3[Q:1/4=100] F3 | AAA AGA |[M:3/8] [Ac]3 | [FA]3 |[M:3/4] [EG][EG] [EG][EG] [DF][EG] | %5
[M:3/8] A3 | F3 |[M:3/4] AA AA GA |[M:3/8] [FAc]3 | [DGB]3 | %10
[M:3/4] [CFA][B,EG] [A,F][Ec] [EB][EG] | F6 | c3 c3 | cA c F2 A/A/ | z2 z c z2 | A4- Ac/c/ | %16
 [Fd]3 f e[Fd] | c3 A2 A | %18
 [EG]3 [Ec]2 [Ec][Q:1/4=99][Q:1/4=97][Q:1/4=96][Q:1/4=94][Q:1/4=93][Q:1/4=91][Q:1/4=90][Q:1/4=88][Q:1/4=87][Q:1/4=85][Q:1/4=84][Q:1/4=82][Q:1/4=81][Q:1/4=79][Q:1/4=78][Q:1/4=76] | %19
[M:9/16] F4- F/ |] %20
V:2
 z3 [F,A,]3 | [F,CF][F,CF][F,CF] [F,CF][F,CE][F,CF] |[M:3/8] [F,F]3 | [F,C]3 | %4
[M:3/4] [C,C][C,C] [C,C][C,C] [C,C][C,C] |[M:3/8] [F,CF]3 | [F,A,]3 | %7
[M:3/4] [F,CF][F,CF] [F,CF][F,CF] [F,CE][F,CF] |[M:3/8] F,3 | B,,3 | %10
[M:3/4] C,C, C,[C,G,] [C,C][C,B,] | [F,A,]6 | [F,A,F]3 [F,A,F]3 | %13
 [F,A,F][F,CF] [F,A,F] [F,A,]2 [F,B,F]/[F,CF]/ | C,4[K:treble] B[K:bass]C, | %15
 [F,CF]4- [F,CF][F,A,F]/[F,A,F]/ | z2 z .[B,,F]3 | [F,A,F]3 [F,CF]2 [F,CF] | %18
 [C,C]3 [C,G,]2 [C,B,] |[M:9/16] [F,A,]4- [F,A,]/ |] %20
V:3
 x6 | x6 |[M:3/8] x3 | x3 |[M:3/4] x6 |[M:3/8] x3 | x3 |[M:3/4] x6 |[M:3/8] x3 | x3 |[M:3/4] x6 | %11
 x6 | x6 | x6 | [DEG]3 [CE]2 [CEG] | x6 | x6 | x6 | x6 |[M:9/16] x9/2 |] %20
V:4
 x6 | x6 |[M:3/8] x3 | x3 |[M:3/4] x6 |[M:3/8] x3 | x3 |[M:3/4] x6 |[M:3/8] x3 | x3 |[M:3/4] x6 | %11
 x6 | x6 | x6 | z2 z .C,3[K:treble][K:bass] | x6 | [B,,B,]3 D C[B,,B,] | x6 | x6 |[M:9/16] x9/2 |] %20

